_inc/systems/logos/samcoupe.svg

<svg xmlns="http://www.w3.org/2000/svg" viewBox="0 0 3840 854.2"><path d="M180.9 586.4c0 91.3 54.1 102.6 78.6 102.6 45.9 0 64.1-34.6 64.1-70.7 0-41.4-22.3-54.2-138.7-105.1C131.9 490.9.2 435.6.2 288 .2 129.8 104 46.3 242.4 46.3c113.1 0 262.5 61.3 265.5 250.3H332.3c0-26.7-5.9-83-65.2-83-33.7 0-66.4 24.4-66.4 61.6 0 36.1 11.8 45.7 147.5 109.4 140.9 65.8 183.6 149.6 183.6 225.1 0 125.3-70.2 244.4-270.3 244.4C110.9 854.2-4.9 740.4.2 586.4zm1143.5 267.8h-218.8l-31.3-807 230 287zm-539.9 0H565.6l-31.3-807h218.9zm1521 0h-225.8L1619 195.8l121.8-148.6z" class="st2" style="fill:#fff"/><path d="m1797.2 813.5-197.4 40.7-450.5-643.9-75-163.1H1261zm-472.8 40.7h-235.6L563.5 103.4l196.7-56.2L1300 817.8z" class="st2" style="fill:#fff"/><path d="M776.4 419.2h168V897h-168z" class="st2" style="fill:#fff" transform="rotate(-90 860.36 658.05)"/><path d="M1798.8 854.2h-199l-21.9-52.4-29.3-754.6h192.2l31.6 125.3zm641.8-147.6c-18.9-33.7-30.2-92 22.8-178.8 54-88.3 109.8-106.8 147.2-106.8 19 0 32.7 4.8 39 7.6l267.3-381.5H1785.8l450.8 643.2 1.7 3.9 113.1 159.9 4-5.7 92-131.3c-2.4-3.3-4.7-6.8-6.8-10.5m1224.7-514.9c16.1 13.7 179.2-117.3 174.6-178.6-5.2-69.4-199.4 157.5-174.6 178.6" class="st2" style="fill:#fff"/><path d="M3808.5 387.6c-17.4-17.8-73.7 68.4-131.6 58.8-30.5-5.1-27.5-34.6-24.8-47.2a8.7 8.7 0 0 1 6.8-6.6c59.7-12.4 165.2-129.1 129.4-170.7-33.5-39-127.8 21.9-160.6 64.3-39.2 50.6-75.9 120.6-105.6 156.6-58.7 71.1-51.7 3.3-41.7-17.9 21.1-44.6 38.5-130.6 10.7-148.9-24.2-15.9-61.3 30.6-73.8 48.8-31.4 45.6-55.1 36-40.6-2.7 18.9-50.1 41.9-121.7 13.1-131.6-39.5-13.6-85.3 127.7-98.1 175.3-12.1 45.2-76.5 210.2-116.9 185.6-26.3-16.1 1.2-88.9 13.3-115.2 27.5-59.5 34.2-86.1 14-94.3-44.2-18-103.5 128.1-120.6 157.2-29.7 50.6-84.4 112.8-87.1 52.3s93-136.4 56-165.1c-36.9-28.7-99.1 99.1-99.1 99.1-38.3 87.1-56.4 69.7-56.4 69.7-5.4-91.8-42.3-146.4-86.8-146.4-45.1 0-83.4 50.1-100.7 106.3-7.9 37.4-40.6 108.4-108.2 148.8-37.4 22.3-112.6 30.8-82.5-53.5 0 0 26-65.1 70.2-47.4 34.2 13.7 87.5-92 54.7-111.6 0 0-78-42-158.1 89.1-84.9 138.8 5.5 202.8 52.8 202.3 56.2-.6 134.2-94.3 145.5-110.2 7.9-11 19-23.1 24.2-9 21.7 59.4 61 72 89.6 71.1 43.5-1.3 61.5-45.4 81.3-69 18.2-21.6 71.1-80.2 72.2-41.9 1.7 57.9 81.9 89.1 110 27.8 25.9-56.5 50.1-48.1 54.2-23.4 9 53.9 42.5 43.7 42.5 43.7 50.2 0 106.1-104.5 125.9-147.8 16.9-37 27.3-18.5 25.1 12.5-4.2 57.9-23.8 114-33.1 154.8-10.9 47.5 7.2 117.9 40 117.9 23.6 0 31.4-128.8 28.4-165.2 0-40.3 47.1-31.4 80.4-34.2 54.2-4.6 89.9-51.6 137.7-118 2.7-3.7 8.5-2.9 9.9 1.5 20.3 62.4 59.6 66.3 86.7 61.9 75.6-12.3 162.9-116.2 151.7-127.6m-83.8-120c15 18.5-39.2 89.1-63.9 74.5-19.1-11.3 50.3-91.2 63.9-74.5m-911.4 366.7c-32.5 26.3-56.5.3-56.4-27.1.1-23.8-5.6-57.9 19.1-88.5 20.5-25.4 42.1-33.8 40.7-6.1-.8 16.6-4.2 31.6 9.9 59.5 17.5 34.4 10.1 43.2-13.3 62.2m614.1-183.1c-14.4 29-26 45.4-45.2 40.6-13.1-3.3-12.5-30.5.4-60.2 15.7-36.1 37.8-62.4 50.2-57s14.4 36.9-5.4 76.6" class="st2" style="fill:#fff"/></svg>

<?xml version="1.0" encoding="utf-8"?>
<svg version="1.1" viewBox="0 0 3840 854.2" xmlns="http://www.w3.org/2000/svg">
  <path class="st2" d="M 180.9 586.4 C 180.9 677.7 235 689 259.5 689 C 305.4 689 323.6 654.4 323.6 618.3 C 323.6 576.9 301.3 564.1 184.9 513.2 C 131.9 490.9 0.2 435.6 0.2 288 C 0.2 129.8 104 46.3 242.4 46.3 C 355.5 46.3 504.9 107.6 507.9 296.6 L 332.3 296.6 C 332.3 269.9 326.4 213.6 267.1 213.6 C 233.4 213.6 200.7 238 200.7 275.2 C 200.7 311.3 212.5 320.9 348.2 384.6 C 489.1 450.4 531.8 534.2 531.8 609.7 C 531.8 735 461.6 854.1 261.5 854.1 C 110.9 854.2 -4.9 740.4 0.2 586.4 L 180.9 586.4 Z" style="fill: rgb(255, 255, 255);"/>
  <polygon class="st2" points="1324.4 854.2 1105.6 854.2 1074.3 47.2 1304.3 334.2" style="fill: rgb(255, 255, 255);"/>
  <polygon class="st2" points="784.5 854.2 565.6 854.2 534.3 47.2 753.2 47.2" style="fill: rgb(255, 255, 255);"/>
  <polygon class="st2" points="2305.5 854.2 2079.7 854.2 1619 195.8 1740.8 47.2" style="fill: rgb(255, 255, 255);"/>
  <polygon class="st2" points="1797.2 813.5 1599.8 854.2 1149.3 210.3 1074.3 47.2 1261 47.2" style="fill: rgb(255, 255, 255);"/>
  <polygon class="st2" points="1324.4 854.2 1088.8 854.2 563.5 103.4 760.2 47.2 1300 817.8" style="fill: rgb(255, 255, 255);"/>
  <rect x="776.4" y="419.2" transform="matrix(0, -1, 1, 0, 202.312302, 1518.413086)" class="st2" width="168" height="477.8" style="fill: rgb(255, 255, 255);"/>
  <polygon class="st2" points="1798.8 854.2 1599.8 854.2 1577.9 801.8 1548.6 47.2 1740.8 47.2 1772.4 172.5" style="fill: rgb(255, 255, 255);"/>
  <path class="st2" d="M 2440.6 706.6 C 2421.7 672.9 2410.4 614.6 2463.4 527.8 C 2517.4 439.5 2573.2 421 2610.6 421 C 2629.6 421 2643.3 425.8 2649.6 428.6 L 2916.9 47.1 L 2134.8 47.1 L 1961.9 47.1 L 1785.8 47.1 L 2236.6 690.3 L 2238.3 694.2 L 2351.4 854.1 L 2355.4 848.4 L 2447.4 717.1 C 2445 713.8 2442.7 710.3 2440.6 706.6 Z" style="fill: rgb(255, 255, 255);"/>
  <path class="st2" d="M 3665.3 191.7 C 3681.4 205.4 3844.5 74.4 3839.9 13.1 C 3834.7 -56.3 3640.5 170.6 3665.3 191.7 Z" style="fill: rgb(255, 255, 255);"/>
  <path class="st2" d="M 3808.5 387.6 C 3791.1 369.8 3734.8 456 3676.9 446.4 C 3646.4 441.3 3649.4 411.8 3652.1 399.2 C 3652.8 395.9 3655.5 393.3 3658.9 392.6 C 3718.6 380.2 3824.1 263.5 3788.3 221.9 C 3754.8 182.9 3660.5 243.8 3627.7 286.2 C 3588.5 336.8 3551.8 406.8 3522.1 442.8 C 3463.4 513.9 3470.4 446.1 3480.4 424.9 C 3501.5 380.3 3518.9 294.3 3491.1 276 C 3466.9 260.1 3429.8 306.6 3417.3 324.8 C 3385.9 370.4 3362.2 360.8 3376.7 322.1 C 3395.6 272 3418.6 200.4 3389.8 190.5 C 3350.3 176.9 3304.5 318.2 3291.7 365.8 C 3279.6 411 3215.2 576 3174.8 551.4 C 3148.5 535.3 3176 462.5 3188.1 436.2 C 3215.6 376.7 3222.3 350.1 3202.1 341.9 C 3157.9 323.9 3098.6 470 3081.5 499.1 C 3051.8 549.7 2997.1 611.9 2994.4 551.4 C 2991.7 490.9 3087.4 415 3050.4 386.3 C 3013.5 357.6 2951.3 485.4 2951.3 485.4 C 2913 572.5 2894.9 555.1 2894.9 555.1 C 2889.5 463.3 2852.6 408.7 2808.1 408.7 C 2763 408.7 2724.7 458.8 2707.4 515 C 2699.5 552.4 2666.8 623.4 2599.2 663.8 C 2561.8 686.1 2486.6 694.6 2516.7 610.3 C 2516.7 610.3 2542.7 545.2 2586.9 562.9 C 2621.1 576.6 2674.4 470.9 2641.6 451.3 C 2641.6 451.3 2563.6 409.3 2483.5 540.4 C 2398.6 679.2 2489 743.2 2536.3 742.7 C 2592.5 742.1 2670.5 648.4 2681.8 632.5 C 2689.7 621.5 2700.8 609.4 2706 623.5 C 2727.7 682.9 2767 695.5 2795.6 694.6 C 2839.1 693.3 2857.1 649.2 2876.9 625.6 C 2895.1 604 2948 545.4 2949.1 583.7 C 2950.8 641.6 3031 672.8 3059.1 611.5 C 3085 555 3109.2 563.4 3113.3 588.1 C 3122.3 642 3155.8 631.8 3155.8 631.8 C 3206 631.8 3261.9 527.3 3281.7 484 C 3298.6 447 3309 465.5 3306.8 496.5 C 3302.6 554.4 3283 610.5 3273.7 651.3 C 3262.8 698.8 3280.9 769.2 3313.7 769.2 C 3337.3 769.2 3345.1 640.4 3342.1 604 C 3342.1 563.7 3389.2 572.6 3422.5 569.8 C 3476.7 565.2 3512.4 518.2 3560.2 451.8 C 3562.9 448.1 3568.7 448.9 3570.1 453.3 C 3590.4 515.7 3629.7 519.6 3656.8 515.2 C 3732.4 502.9 3819.7 399 3808.5 387.6 Z M 3724.7 267.6 C 3739.7 286.1 3685.5 356.7 3660.8 342.1 C 3641.7 330.8 3711.1 250.9 3724.7 267.6 Z M 2813.3 634.3 C 2780.8 660.6 2756.8 634.6 2756.9 607.2 C 2757 583.4 2751.3 549.3 2776 518.7 C 2796.5 493.3 2818.1 484.9 2816.7 512.6 C 2815.9 529.2 2812.5 544.2 2826.6 572.1 C 2844.1 606.5 2836.7 615.3 2813.3 634.3 Z M 3427.4 451.2 C 3413 480.2 3401.4 496.6 3382.2 491.8 C 3369.1 488.5 3369.7 461.3 3382.6 431.6 C 3398.3 395.5 3420.4 369.2 3432.8 374.6 C 3445.2 380 3447.2 411.5 3427.4 451.2 Z" style="fill: rgb(255, 255, 255);"/>
</svg>
